img/svg/placeholder-ordnance.svg

<svg xmlns="http://www.w3.org/2000/svg" viewBox="0 0 512 512" style="height: 512px; width: 512px;"><g class="" transform="translate(0,0)" style=""><path d="m253.713 25.463-4.16 15.523C147.833 33.02 69.483 164.754 40.46 273.08l11.374 57.45C105.83 169.524 184.77 82.474 254.436 83.35l136.16 36.486 14.424-53.828-151.307-40.543zm164.695 62.78-4.836 18.05 24.246 6.498a45.814 45.814 0 0 0-3.353 5.175c-5.413 9.698-8.35 22.035-8.35 35.55 0 13.513 2.937 25.85 8.35 35.548s14.18 17.628 25.46 17.628c11.278 0 20.043-7.93 25.456-17.627 5.414-9.7 8.352-22.035 8.352-35.55 0-13.512-2.938-25.848-8.35-35.546-4.145-7.425-10.26-13.8-17.956-16.387l.05-.19L418.41 88.24zm-162.88 14.017c-16.805 5.265-33.33 14.11-48.827 26.033l43.484 11.652c8.062-12.484 16.437-23.367 24.978-32.424l-19.635-5.26zm40.638 10.888c-8.584 7.96-17.527 18.798-26.414 32.04l66.496 17.818c-1.075-15.91-3.4-29.77-6.855-40.953l-33.227-8.905zm163.758 5.877c2.23 0 5.697 1.883 9.14 8.05 3.44 6.166 5.98 15.744 5.98 26.44 0 10.694-2.54 20.274-5.98 26.44-3.443 6.166-6.91 8.05-9.14 8.05-2.23 0-5.7-1.884-9.14-8.05-3.442-6.166-5.98-15.746-5.98-26.44 0-10.697 2.538-20.277 5.98-26.443 3.44-6.166 6.91-8.047 9.14-8.047zm-109.528 8.655c2.87 12.113 4.678 25.725 5.418 40.568l48.528 13.004c-7.46-18.074-17.346-33.997-29.266-46.96l-24.68-6.612zm-160.75 15.392c-18.056 17.506-34.11 39.42-46.763 64.79l66.03 17.695c9.335-25.593 19.883-48.854 31.226-68.955l-50.495-13.53zm69.762 18.694c-11.404 19.538-22.43 42.79-32.164 68.703l103.178 27.643c4.528-27.308 6.605-52.958 6.498-75.58l-77.512-20.767zm96.778 25.93c-.228 23.08-2.723 48.5-7.436 75.33l71.076 19.044c1.728-28.298-1.217-55.304-8.1-79.492l-55.54-14.88zm-221.15 37.413a277.37 277.37 0 0 0-11.522 34.048 277.86 277.86 0 0 0-6.416 30.797l68.04 18.23a642.61 642.61 0 0 1 7.385-30.533 640.212 640.212 0 0 1 10.254-34.392l-67.74-18.15zm85.93 23.023a567.73 567.73 0 0 0-10.39 34.355 570.712 570.712 0 0 0-7.29 30.56l106.593 28.56a570.619 570.619 0 0 0 8.966-30.108 568.33 568.33 0 0 0 8.183-34.947l-106.065-28.42zm124.247 33.293a641.596 641.596 0 0 1-17.185 65.047l73.085 19.582a277.995 277.995 0 0 0 9.84-29.877 276.952 276.952 0 0 0 7.043-35.25l-72.783-19.502zm-230.256 27.3c-2 25.508-.197 50.033 4.86 72.49L173.51 395.6c.822-21.46 3.467-44.693 7.943-69.057l-66.498-17.818zm84.8 22.723c-4.306 24.693-6.634 48.122-7.153 69.267l82.693 22.158c10.122-18.572 19.82-40.026 28.437-63.564l-103.976-27.86zm122.28 32.763c-8.305 23.338-17.63 44.783-27.646 63.78l58.74 15.737c15.605-16.92 29.43-37.258 40.45-60.347l-71.543-19.17zM125.65 402.125c7.774 23.043 19.257 43.167 33.743 58.918l19.636 5.262c-3.55-15.012-5.47-32.33-5.76-51.42l-47.62-12.76zm66.998 17.953c.63 20.52 3.166 38.184 7.387 51.856l33.217 8.9c10.492-9.73 21.52-23.758 32.326-41.215l-72.93-19.542zm92.31 24.733c-9.796 16.388-20.118 30.428-30.698 41.653l24.68 6.613c20.423-6.398 40.43-18.082 58.683-34.152l-52.666-14.113z" fill="#fff" fill-opacity="1"></path></g></svg>

<svg width="512" height="512" viewBox="0 0 512 512" fill="none" xmlns="http://www.w3.org/2000/svg">
<path d="M253.713 25.4629L249.553 40.9859C147.833 33.0199 69.483 164.754 40.46 273.08L51.834 330.53C105.83 169.524 184.77 82.4739 254.436 83.3499L390.596 119.836L405.02 66.0079L253.713 25.4649V25.4629ZM418.408 88.2429L413.572 106.293L437.818 112.791C436.585 114.439 435.465 116.168 434.465 117.966C429.052 127.664 426.115 140.001 426.115 153.516C426.115 167.029 429.052 179.366 434.465 189.064C439.878 198.762 448.645 206.692 459.925 206.692C471.203 206.692 479.968 198.762 485.381 189.065C490.795 179.365 493.733 167.03 493.733 153.515C493.733 140.003 490.795 127.667 485.383 117.969C481.238 110.544 475.123 104.169 467.427 101.582L467.477 101.392L418.41 88.2399L418.408 88.2429ZM255.528 102.26C238.723 107.525 222.198 116.37 206.701 128.293L250.185 139.945C258.247 127.461 266.622 116.578 275.163 107.521L255.528 102.26ZM296.166 113.148C287.582 121.108 278.639 131.946 269.752 145.188L336.248 163.006C335.173 147.096 332.848 133.236 329.393 122.053L296.166 113.148ZM459.924 119.025C462.154 119.025 465.621 120.908 469.064 127.075C472.504 133.241 475.044 142.819 475.044 153.515C475.044 164.209 472.504 173.789 469.064 179.955C465.621 186.121 462.154 188.005 459.924 188.005C457.694 188.005 454.224 186.121 450.784 179.955C447.342 173.789 444.804 164.209 444.804 153.515C444.804 142.818 447.342 133.238 450.784 127.072C454.224 120.906 457.694 119.025 459.924 119.025ZM350.396 127.68C353.266 139.793 355.074 153.405 355.814 168.248L404.342 181.252C396.882 163.178 386.996 147.255 375.076 134.292L350.396 127.68ZM189.646 143.072C171.59 160.578 155.536 182.492 142.883 207.862L208.913 225.557C218.248 199.964 228.796 176.703 240.139 156.602L189.644 143.072H189.646ZM259.408 161.766C248.004 181.304 236.978 204.556 227.244 230.469L330.422 258.112C334.95 230.804 337.027 205.154 336.92 182.532L259.408 161.765V161.766ZM356.186 187.696C355.958 210.776 353.463 236.196 348.75 263.026L419.826 282.07C421.554 253.772 418.609 226.766 411.726 202.578L356.186 187.698V187.696ZM135.036 225.109C130.463 236.197 126.614 247.57 123.514 259.157C120.795 269.293 118.653 279.575 117.098 289.954L185.138 308.184C187.35 297.948 189.813 287.767 192.523 277.651C195.619 266.093 199.038 254.625 202.777 243.259L135.037 225.109H135.036ZM220.966 248.132C217.141 259.471 213.676 270.929 210.576 282.487C207.866 292.605 205.435 302.795 203.286 313.047L309.879 341.607C313.143 331.655 316.133 321.615 318.845 311.499C321.94 299.939 324.669 288.284 327.028 276.552L220.963 248.132H220.966ZM345.213 281.425C340.626 303.393 334.89 325.105 328.028 346.472L401.113 366.054C404.954 356.289 408.239 346.314 410.953 336.177C414.062 324.592 416.414 312.817 417.996 300.927L345.213 281.425ZM114.957 308.725C112.957 334.233 114.76 358.758 119.817 381.215L173.51 395.6C174.332 374.14 176.977 350.907 181.453 326.543L114.955 308.725H114.957ZM199.757 331.448C195.451 356.141 193.123 379.57 192.604 400.715L275.297 422.873C285.419 404.301 295.117 382.847 303.734 359.309L199.758 331.449L199.757 331.448ZM322.037 364.211C313.732 387.549 304.407 408.994 294.391 427.991L353.131 443.728C368.736 426.808 382.561 406.47 393.581 383.381L322.038 364.211H322.037ZM125.65 402.125C133.424 425.168 144.907 445.292 159.393 461.043L179.029 466.305C175.479 451.293 173.559 433.975 173.269 414.885L125.65 402.125ZM192.648 420.078C193.278 440.598 195.814 458.262 200.035 471.934L233.252 480.834C243.744 471.104 254.772 457.076 265.578 439.619L192.648 420.077V420.078ZM284.958 444.811C275.162 461.199 264.84 475.239 254.26 486.464L278.94 493.077C299.363 486.679 319.37 474.995 337.623 458.925L284.957 444.812L284.958 444.811Z" fill="#444856"/>
</svg>
